X:850
T:Jug of Punch
Z: id:dc-reel-160
M:C
L:1/8
K:D Dorian
C|A,DDC DE^FG|AGG2 A^FGF|EA,A,B, CDE^F|G2AG FDEC|!
A,DDE FDDE|F2ED CDEG|cded cAGE|FDEC D3:|!
c|Adde fedf|efed cAAG|AEAB c3d|eaag edcA|!
d3e fedf|efed cAAB|c3A B2AG|FDEC D3:|!
